X:308
T: BEGLUECKT BEGLUECKT WER DIE GELIEBTE FINDET
N: B0365
O: Europa, Mitteleuropa, Deutschland
R: Liebes - Lied, Liebes - Lust
M: 4/4
L: 1/16
K: A
E2F2G2 | A6B2c3BA2G2 | G3FF6
AGBAGF | E2A2c2e2e2d2B2G2 | A8z2
E2F2G2 | A6B2c3BA2G2 | G3FF6
AGBAGF | E2A2c2e2e2d2B2G2 | A8z2
A2B2A2 | G6B2e3dc2B2 | B3AA6
cBdcBA | G2B2B2e2e6d2 | c8z2
E2F2G2 | A6B2c3BA2G2 | G3FF6
AGBAGF | E2A2c2e2e6G2 | A8z2

@@@ Tune index: 2111
